app/assets/img/work/ttl-bprost-sp.svg

<svg fill="none" height="20" viewBox="0 0 92 20" width="92" xmlns="http://www.w3.org/2000/svg"><path d="m.56 19v-18.9410002h6.968c1.30867 0 2.42233.1213332 3.341.3640002.9187.242666 1.6683.585 2.249 1.027s1.001.97933 1.261 1.612c.2687.63267.403 1.339.403 2.119 0 .42467-.0607.83633-.182 1.235-.1213.39-.312.75833-.572 1.105s-.5937.663-1.001.949c-.4073.27733-.897.52-1.469.728 1.248.30333 2.171.79733 2.769 1.482.598.676.897 1.547.897 2.613 0 .806-.156 1.5557-.468 2.249s-.7713 1.3-1.378 1.82c-.598.5113-1.339.9143-2.223 1.209-.884.286-1.89367.429-3.029.429zm4.394-8.034v4.719h3.094c.58067 0 1.053-.0737 1.417-.221.37267-.1473.663-.338.871-.572s.351-.4983.429-.793.117-.5937.117-.897c0-.3467-.0477-.6587-.143-.936-.0867-.2773-.2427-.5113-.468-.702-.2167-.1907-.507-.338-.871-.442s-.82333-.156-1.378-.156zm0-2.938h2.288c.48533 0 .923-.03467 1.313-.104s.71933-.19067.988-.364c.27733-.17333.4853-.41167.624-.715.1473-.30333.221-.68467.221-1.144 0-.45067-.0563-.82333-.169-1.118-.1127-.30333-.286-.546-.52-.728s-.533-.312-.897-.39c-.35533-.078-.78-.117-1.274-.117h-2.574zm12.6685 1.443h7.02v3.25h-7.02zm14.537 3.198v6.331h-4.394v-18.9410002h6.682c1.3347 0 2.4787.1603332 3.432.4809992.962.312 1.7507.745331 2.366 1.300001.624.55467 1.0834 1.209 1.378 1.963.2947.754.442 1.56867.442 2.444 0 .94467-.1516 1.81133-.455 2.6-.3033.78867-.767 1.4647-1.391 2.028s-1.417 1.0053-2.379 1.326c-.9533.312-2.0843.468-3.393.468zm0-3.315h2.288c1.144 0 1.9674-.273 2.47-.819.5027-.546.754-1.30867.754-2.288 0-.43333-.065-.82767-.195-1.183s-.3293-.65867-.598-.91c-.26-.26-.5936-.45933-1.001-.598-.3986-.13867-.8753-.208-1.43-.208h-2.288zm12.4461 9.646v-13.481h2.392c.1994 0 .364.01733.494.052.1387.03467.2514.091.338.169.0954.06933.1647.16467.208.286.052.12133.0954.26867.13.442l.221 1.261c.494-.76267 1.0487-1.365 1.664-1.807.6154-.442 1.287-.663 2.015-.663.6154 0 1.1094.14733 1.482.442l-.52 2.964c-.0346.182-.104.312-.208.39-.104.06933-.2426.104-.416.104-.1473 0-.3206-.01733-.52-.052-.1993-.04333-.4506-.065-.754-.065-1.0573 0-1.8893.56333-2.496 1.69v8.268zm17.0063-13.689c1.0226 0 1.9543.16033 2.795.481.8406.32067 1.56.78 2.158 1.378.6066.598 1.0746 1.326 1.404 2.184.338.8493.507 1.807.507 2.873 0 1.0747-.169 2.0453-.507 2.912-.3294.858-.7974 1.5903-1.404 2.197-.598.598-1.3174 1.0617-2.158 1.391-.8407.3207-1.7724.481-2.795.481-1.0314 0-1.9717-.1603-2.821-.481-.8407-.3293-1.5687-.793-2.184-1.391-.6067-.6067-1.079-1.339-1.417-2.197-.3294-.8667-.494-1.8373-.494-2.912 0-1.066.1646-2.0237.494-2.873.338-.858.8103-1.586 1.417-2.184.6153-.598 1.3433-1.05733 2.184-1.378.8493-.32067 1.7896-.481 2.821-.481zm0 10.907c.9273 0 1.6076-.325 2.041-.975.442-.6587.663-1.6553.663-2.99s-.221-2.327-.663-2.977c-.4334-.65-1.1137-.975-2.041-.975-.9534 0-1.651.325-2.093.975s-.663 1.6423-.663 2.977.221 2.3313.663 2.99c.442.65 1.1396.975 2.093.975zm17.578-7.748c-.104.16467-.2167.28167-.338.351-.1127.06933-.26.104-.442.104-.1907 0-.3813-.039-.572-.117-.1907-.08667-.3987-.17767-.624-.273-.2167-.09533-.4637-.182-.741-.26-.2773-.08667-.5937-.13-.949-.13-.5113 0-.9057.09967-1.183.299-.2687.19067-.403.45933-.403.806 0 .25133.0867.45933.26.624.182.1647.4203.312.715.442.2947.1213.6283.2383 1.001.351s.754.2383 1.144.377.7713.3033 1.144.494c.3727.182.7063.4117 1.001.689.2947.2687.5287.598.702.988.182.39.273.858.273 1.404 0 .6673-.1213 1.2827-.364 1.846s-.6067 1.0487-1.092 1.456c-.4767.4073-1.0703.7237-1.781.949-.702.2253-1.5123.338-2.431.338-.4593 0-.9187-.0433-1.378-.13s-.9057-.2037-1.339-.351c-.4247-.1473-.819-.3207-1.183-.52-.364-.208-.676-.429-.936-.663l.936-1.482c.1127-.1733.247-.3077.403-.403.156-.104.3597-.156.611-.156.234 0 .442.052.624.156.1907.104.3943.2167.611.338s.468.234.754.338c.2947.104.663.156 1.105.156.312 0 .5763-.0303.793-.091.2167-.0693.39-.1603.52-.273s.2253-.2383.286-.377.091-.2817.091-.429c0-.2687-.091-.4897-.273-.663s-.4203-.3207-.715-.442c-.2947-.13-.6327-.247-1.014-.351-.3727-.1127-.754-.2383-1.144-.377s-.7757-.3033-1.157-.494c-.3727-.1993-.7063-.4463-1.001-.741-.2947-.3033-.533-.6717-.715-1.105s-.273-.9577-.273-1.573c0-.572.1083-1.11367.325-1.625.2253-.52.559-.975 1.001-1.365s.9967-.69767 1.664-.923c.6673-.234 1.4473-.351 2.34-.351.4853 0 .9533.04333 1.404.13.4593.08667.8883.208 1.287.364s.7627.34233 1.092.559c.3293.208.6197.43767.871.689zm8.2012 10.738c-.6414 0-1.209-.091-1.703-.273-.4854-.1907-.897-.455-1.235-.793-.3294-.3467-.5807-.7627-.754-1.248-.1734-.4853-.26-1.027-.26-1.625v-6.968h-1.144c-.208 0-.3857-.065-.533-.195-.1474-.13867-.221-.338-.221-.598v-1.573l2.145-.416.793-3.289c.104-.416.3986-.624.884-.624h2.106v3.939h3.276v2.756h-3.276v6.695c0 .312.0736.572.221.78.156.1993.377.299.663.299.1473 0 .2686-.013.364-.039.104-.0347.1906-.0693.26-.104.078-.0433.1473-.078.208-.104.0693-.0347.1473-.052.234-.052.1213 0 .2166.0303.286.091.078.052.156.1387.234.26l1.222 1.911c-.52.39-1.105.6847-1.755.884-.65.1907-1.3217.286-2.015.286z" fill="#121111"/></svg>

<svg width="92" height="20" viewBox="0 0 92 20" fill="none" xmlns="http://www.w3.org/2000/svg">
<path d="M0.56 19V0.0589998H7.528C8.83667 0.0589998 9.95033 0.180333 10.869 0.423C11.7877 0.665666 12.5373 1.008 13.118 1.45C13.6987 1.892 14.119 2.42933 14.379 3.062C14.6477 3.69467 14.782 4.401 14.782 5.181C14.782 5.60567 14.7213 6.01733 14.6 6.416C14.4787 6.806 14.288 7.17433 14.028 7.521C13.768 7.86767 13.4343 8.184 13.027 8.47C12.6197 8.74733 12.13 8.99 11.558 9.198C12.806 9.50133 13.729 9.99533 14.327 10.68C14.925 11.356 15.224 12.227 15.224 13.293C15.224 14.099 15.068 14.8487 14.756 15.542C14.444 16.2353 13.9847 16.842 13.378 17.362C12.78 17.8733 12.039 18.2763 11.155 18.571C10.271 18.857 9.26133 19 8.126 19H0.56ZM4.954 10.966V15.685H8.048C8.62867 15.685 9.101 15.6113 9.465 15.464C9.83767 15.3167 10.128 15.126 10.336 14.892C10.544 14.658 10.687 14.3937 10.765 14.099C10.843 13.8043 10.882 13.5053 10.882 13.202C10.882 12.8553 10.8343 12.5433 10.739 12.266C10.6523 11.9887 10.4963 11.7547 10.271 11.564C10.0543 11.3733 9.764 11.226 9.4 11.122C9.036 11.018 8.57667 10.966 8.022 10.966H4.954ZM4.954 8.028H7.242C7.72733 8.028 8.165 7.99333 8.555 7.924C8.945 7.85467 9.27433 7.73333 9.543 7.56C9.82033 7.38667 10.0283 7.14833 10.167 6.845C10.3143 6.54167 10.388 6.16033 10.388 5.701C10.388 5.25033 10.3317 4.87767 10.219 4.583C10.1063 4.27967 9.933 4.037 9.699 3.855C9.465 3.673 9.166 3.543 8.802 3.465C8.44667 3.387 8.022 3.348 7.528 3.348H4.954V8.028ZM17.6225 9.471H24.6425V12.721H17.6225V9.471ZM32.1595 12.669V19H27.7655V0.0589998H34.4475C35.7822 0.0589998 36.9262 0.219333 37.8795 0.539999C38.8415 0.851999 39.6302 1.28533 40.2455 1.84C40.8695 2.39467 41.3289 3.049 41.6235 3.803C41.9182 4.557 42.0655 5.37167 42.0655 6.247C42.0655 7.19167 41.9139 8.05833 41.6105 8.847C41.3072 9.63567 40.8435 10.3117 40.2195 10.875C39.5955 11.4383 38.8025 11.8803 37.8405 12.201C36.8872 12.513 35.7562 12.669 34.4475 12.669H32.1595ZM32.1595 9.354H34.4475C35.5915 9.354 36.4149 9.081 36.9175 8.535C37.4202 7.989 37.6715 7.22633 37.6715 6.247C37.6715 5.81367 37.6065 5.41933 37.4765 5.064C37.3465 4.70867 37.1472 4.40533 36.8785 4.154C36.6185 3.894 36.2849 3.69467 35.8775 3.556C35.4789 3.41733 35.0022 3.348 34.4475 3.348H32.1595V9.354ZM44.6056 19V5.519H46.9976C47.197 5.519 47.3616 5.53633 47.4916 5.571C47.6303 5.60567 47.743 5.662 47.8296 5.74C47.925 5.80933 47.9943 5.90467 48.0376 6.026C48.0896 6.14733 48.133 6.29467 48.1676 6.468L48.3886 7.729C48.8826 6.96633 49.4373 6.364 50.0526 5.922C50.668 5.48 51.3396 5.259 52.0676 5.259C52.683 5.259 53.177 5.40633 53.5496 5.701L53.0296 8.665C52.995 8.847 52.9256 8.977 52.8216 9.055C52.7176 9.12433 52.579 9.159 52.4056 9.159C52.2583 9.159 52.085 9.14167 51.8856 9.107C51.6863 9.06367 51.435 9.042 51.1316 9.042C50.0743 9.042 49.2423 9.60533 48.6356 10.732V19H44.6056ZM61.6119 5.311C62.6345 5.311 63.5662 5.47133 64.4069 5.792C65.2475 6.11267 65.9669 6.572 66.5649 7.17C67.1715 7.768 67.6395 8.496 67.9689 9.354C68.3069 10.2033 68.4759 11.161 68.4759 12.227C68.4759 13.3017 68.3069 14.2723 67.9689 15.139C67.6395 15.997 67.1715 16.7293 66.5649 17.336C65.9669 17.934 65.2475 18.3977 64.4069 18.727C63.5662 19.0477 62.6345 19.208 61.6119 19.208C60.5805 19.208 59.6402 19.0477 58.7909 18.727C57.9502 18.3977 57.2222 17.934 56.6069 17.336C56.0002 16.7293 55.5279 15.997 55.1899 15.139C54.8605 14.2723 54.6959 13.3017 54.6959 12.227C54.6959 11.161 54.8605 10.2033 55.1899 9.354C55.5279 8.496 56.0002 7.768 56.6069 7.17C57.2222 6.572 57.9502 6.11267 58.7909 5.792C59.6402 5.47133 60.5805 5.311 61.6119 5.311ZM61.6119 16.218C62.5392 16.218 63.2195 15.893 63.6529 15.243C64.0949 14.5843 64.3159 13.5877 64.3159 12.253C64.3159 10.9183 64.0949 9.926 63.6529 9.276C63.2195 8.626 62.5392 8.301 61.6119 8.301C60.6585 8.301 59.9609 8.626 59.5189 9.276C59.0769 9.926 58.8559 10.9183 58.8559 12.253C58.8559 13.5877 59.0769 14.5843 59.5189 15.243C59.9609 15.893 60.6585 16.218 61.6119 16.218ZM79.1899 8.47C79.0859 8.63467 78.9732 8.75167 78.8519 8.821C78.7392 8.89033 78.5919 8.925 78.4099 8.925C78.2192 8.925 78.0286 8.886 77.8379 8.808C77.6472 8.72133 77.4392 8.63033 77.2139 8.535C76.9972 8.43967 76.7502 8.353 76.4729 8.275C76.1956 8.18833 75.8792 8.145 75.5239 8.145C75.0126 8.145 74.6182 8.24467 74.3409 8.444C74.0722 8.63467 73.9379 8.90333 73.9379 9.25C73.9379 9.50133 74.0246 9.70933 74.1979 9.874C74.3799 10.0387 74.6182 10.186 74.9129 10.316C75.2076 10.4373 75.5412 10.5543 75.9139 10.667C76.2866 10.7797 76.6679 10.9053 77.0579 11.044C77.4479 11.1827 77.8292 11.3473 78.2019 11.538C78.5746 11.72 78.9082 11.9497 79.2029 12.227C79.4976 12.4957 79.7316 12.825 79.9049 13.215C80.0869 13.605 80.1779 14.073 80.1779 14.619C80.1779 15.2863 80.0566 15.9017 79.8139 16.465C79.5712 17.0283 79.2072 17.5137 78.7219 17.921C78.2452 18.3283 77.6516 18.6447 76.9409 18.87C76.2389 19.0953 75.4286 19.208 74.5099 19.208C74.0506 19.208 73.5912 19.1647 73.1319 19.078C72.6726 18.9913 72.2262 18.8743 71.7929 18.727C71.3682 18.5797 70.9739 18.4063 70.6099 18.207C70.2459 17.999 69.9339 17.778 69.6739 17.544L70.6099 16.062C70.7226 15.8887 70.8569 15.7543 71.0129 15.659C71.1689 15.555 71.3726 15.503 71.6239 15.503C71.8579 15.503 72.0659 15.555 72.2479 15.659C72.4386 15.763 72.6422 15.8757 72.8589 15.997C73.0756 16.1183 73.3269 16.231 73.6129 16.335C73.9076 16.439 74.2759 16.491 74.7179 16.491C75.0299 16.491 75.2942 16.4607 75.5109 16.4C75.7276 16.3307 75.9009 16.2397 76.0309 16.127C76.1609 16.0143 76.2562 15.8887 76.3169 15.75C76.3776 15.6113 76.4079 15.4683 76.4079 15.321C76.4079 15.0523 76.3169 14.8313 76.1349 14.658C75.9529 14.4847 75.7146 14.3373 75.4199 14.216C75.1252 14.086 74.7872 13.969 74.4059 13.865C74.0332 13.7523 73.6519 13.6267 73.2619 13.488C72.8719 13.3493 72.4862 13.1847 72.1049 12.994C71.7322 12.7947 71.3986 12.5477 71.1039 12.253C70.8092 11.9497 70.5709 11.5813 70.3889 11.148C70.2069 10.7147 70.1159 10.1903 70.1159 9.575C70.1159 9.003 70.2242 8.46133 70.4409 7.95C70.6662 7.43 70.9999 6.975 71.4419 6.585C71.8839 6.195 72.4386 5.88733 73.1059 5.662C73.7732 5.428 74.5532 5.311 75.4459 5.311C75.9312 5.311 76.3992 5.35433 76.8499 5.441C77.3092 5.52767 77.7382 5.649 78.1369 5.805C78.5356 5.961 78.8996 6.14733 79.2289 6.364C79.5582 6.572 79.8486 6.80167 80.0999 7.053L79.1899 8.47ZM87.3911 19.208C86.7497 19.208 86.1821 19.117 85.6881 18.935C85.2027 18.7443 84.7911 18.48 84.4531 18.142C84.1237 17.7953 83.8724 17.3793 83.6991 16.894C83.5257 16.4087 83.4391 15.867 83.4391 15.269V8.301H82.2951C82.0871 8.301 81.9094 8.236 81.7621 8.106C81.6147 7.96733 81.5411 7.768 81.5411 7.508V5.935L83.6861 5.519L84.4791 2.23C84.5831 1.814 84.8777 1.606 85.3631 1.606H87.4691V5.545H90.7451V8.301H87.4691V14.996C87.4691 15.308 87.5427 15.568 87.6901 15.776C87.8461 15.9753 88.0671 16.075 88.3531 16.075C88.5004 16.075 88.6217 16.062 88.7171 16.036C88.8211 16.0013 88.9077 15.9667 88.9771 15.932C89.0551 15.8887 89.1244 15.854 89.1851 15.828C89.2544 15.7933 89.3324 15.776 89.4191 15.776C89.5404 15.776 89.6357 15.8063 89.7051 15.867C89.7831 15.919 89.8611 16.0057 89.9391 16.127L91.1611 18.038C90.6411 18.428 90.0561 18.7227 89.4061 18.922C88.7561 19.1127 88.0844 19.208 87.3911 19.208Z" fill="#121111"/>
</svg>
